22x22/apps/io.github.NhekoReborn.Nheko.svg

<svg xmlns="http://www.w3.org/2000/svg" width="22" height="22" version="1">
 <path style="opacity:0.2" d="m 21,11.5 a 10,10 0 0 1 -10,10 10,10 0 0 1 -10,-10 10,10 0 0 1 10,-10 10,10 0 0 1 10,10 z"/>
 <path style="fill:#4f4f4f" d="M 21,11 A 10,10 0 0 1 11,21 10,10 0 0 1 1,11 10,10 0 0 1 11,1 10,10 0 0 1 21,11 Z"/>
 <path style="opacity:0.2" d="M 4.8007812,7.5 3,10.5 h 3.8242188 l -2.625,5 H 6.25 8.3007812 10.349609 l 2.625,-5 h 2.050782 l -2.625,5 h 2.048828 l 4.201172,-8 H 18.5 10.449219 8.4003906 Z"/>
 <path style="fill:#f4f4f7" d="m 12.5,7 h 2.05 l -4.2,8 H 8.3 Z"/>
 <path style="fill:#f4f4f7" d="m 16.6,7 h 2.05 l -4.2,8 H 12.4 Z"/>
 <path style="fill:#f4f4f7" d="M 4.8007812,7 3,10 H 6.8242188 L 8.4003906,7 Z M 12.5,7 10.925781,10 h 5.875 L 18.5,7 Z"/>
 <path style="fill:#4485e8" d="M 10.45,7 H 12.5 L 8.3,15 H 6.25 Z"/>
 <path style="fill:#69b0ec" d="m 8.4,7 h 2.05 l -4.2,8 H 4.2 Z"/>
 <path style="opacity:0.1;fill:#f4f4f7" d="M 11,1 A 10,10 0 0 0 1,11 10,10 0 0 0 1.0107422,11.291016 10,10 0 0 1 11,1.5 10,10 0 0 1 20.989258,11.208985 10,10 0 0 0 21,11 10,10 0 0 0 11,1 Z"/>
</svg>

<svg xmlns="http://www.w3.org/2000/svg" width="22" height="22" version="1"><path style="opacity:.2" d="M21 11.5a10 10 0 0 1-10 10 10 10 0 0 1-10-10 10 10 0 0 1 10-10 10 10 0 0 1 10 10z"/><path style="fill:#4f4f4f" d="M21 11a10 10 0 0 1-10 10A10 10 0 0 1 1 11 10 10 0 0 1 11 1a10 10 0 0 1 10 10z"/><path style="opacity:.2" d="m4.8 7.5-1.8 3h3.824l-2.625 5h6.151l2.625-5h2.05l-2.625 5h2.05l4.2-8H8.4z"/><path style="fill:#f4f4f7" d="M12.5 7h2.05l-4.2 8H8.3zM16.6 7h2.05l-4.2 8H12.4z"/><path style="fill:#f4f4f7" d="M4.8 7 3 10h3.824L8.4 7zm7.7 0-1.574 3H16.8L18.5 7z"/><path style="fill:#4485e8" d="M10.45 7h2.05l-4.2 8H6.25z"/><path style="fill:#69b0ec" d="M8.4 7h2.05l-4.2 8H4.2z"/><path style="opacity:.1;fill:#f4f4f7" d="M11 1A10 10 0 0 0 1 11a10 10 0 0 0 .01.291A10 10 0 0 1 11 1.5a10 10 0 0 1 9.99 9.709A10 10 0 0 0 21 11 10 10 0 0 0 11 1z"/></svg>
